X: 20372
M: 6/8
L: 1/8
K: C
.c.d.e .c.d.e | f2f f2d | (e2c) gfe | d2d d2G |\
.c.d.e .c.d.e | f2f f2d | egc fdB | c2c c2 :|
|: g |\
gdf edc | B2d c2e | gfe gfe | d2d d2G |\
.c.d.e .c.d.e | f2f f2d | egc fdB | c2c c2 :|


